public/avatar/shoe/29.svg

<svg xmlns:xlink="http://www.w3.org/1999/xlink" height="38.3" width="36.05" xmlns="http://www.w3.org/2000/svg"><use height="17.8" transform="translate(7.75 12.2)" width="24.95" xlink:href="#a"/><defs><g id="a"><path d="M-.4 7.65q-1.8 1.55-4.65 2.5-3.8 1.3-5.75-2.3-2.75 2.05-4.4-1.1.6-1.45 2.15-2.35 1.4-2.05 4.5-4.4 2.2 0 3.9 1.1Q-3 2.15-1.6 4.15l-.65.65L-.9 6.95l.5.7m-8.05-1.5q-1.35 0-2.35 1.7 1-1.7 2.35-1.7" fill="#c00" fill-rule="evenodd" transform="translate(16.05 2.65)"/><path d="M-3.25-1.1q3.55-2 5.9-.1L4.55.85l-.95.35-1.55.3 2.1 3.7q.6 1.25.8 2.65l1.7-.55.25 1.25-.1.95q-3.55 1.9-7.35 3.35l.6-.2-1.3.5-.2.05-.95.35-1.1.35-1 .3-2.55.4-2.95.05-.3-.95q-.2-.95.1-1.75l5.4-.2q3.5-1.55 5.55-2.2L-.4 7.65l-.5-.7-1.35-2.15.65-.65.6-.35L.75 6.35l.3.5L2.3 9l.4-.15.9-.4q-.35-1.6-1-2.95L1.25 2.85l-.1-.2.9-1.15Q1.1 1.5.3 1l-3.55-2.1m-8.55 12.25q-.65.9-.55 1.8l.4.95-.3-.4-2.05-.25-.35-1q-.2-.85 0-1.5.6.4 1.2.5l1.65-.1m11.25 1.7-.7.3.7-.3M2.3 9l-1.1.4-.45.15.45-.15L2.3 9m2.65-1.15-1.2.55-.15.05.15-.05 1.2-.55" fill="#fff" fill-rule="evenodd" transform="translate(16.05 2.65)"/><path d="m-8.55 0 .8-.6 2.55-1.5 1.95 1L.3 1q.8.5 1.75.5l-.9 1.15.1.2L2.6 5.5q.65 1.35 1 2.95l-.9.4-.4.15-1.25-2.15-.3-.5L-1 3.8l-.6.35q-1.4-2-3.05-3.05Q-6.35 0-8.55 0m13.1.85Q5.7.3 6.15.1 7.55 1.35 8 3.3l.15.85.2 1.75q-.6.85-1.7 1.4l-1.7.55q-.2-1.4-.8-2.65l-2.1-3.7 1.55-.3.95-.35m-15.35 7q1.95 3.6 5.75 2.3Q-2.2 9.2-.4 7.65l1.15 1.9q-2.05.65-5.55 2.2l-5.4.2q-.8-.3-1.55-.8h-.05l-1.65.1q-.6-.1-1.2-.5l-.65-.45-.2-.85q-.2-1.55.3-2.7 1.65 3.15 4.4 1.1l-.05.05q-.75 1.4-.9 3.25.15-1.85.9-3.25l.05-.05" fill="#900" fill-rule="evenodd" transform="translate(16.05 2.65)"/><path d="m8.35 5.9.05 1.95-.2.85-1.4.8.1-.95-.25-1.25q1.1-.55 1.7-1.4m-20.15 5.25h.05q.75.5 1.55.8-.3.8-.1 1.75l.3.95-.75-.2-1.2-.55-.4-.95q-.1-.9.55-1.8m-2.85-.4q-.2.65 0 1.5l.35 1-.9-.6q-.55-.6-.1-2.35l.65.45" fill="#c9d8e4" fill-rule="evenodd" transform="translate(16.05 2.65)"/><path d="M-10.8 7.85q1-1.7 2.35-1.7m-3.3 5q.15-1.85.9-3.25l.05-.05" fill="none" stroke="#600" stroke-linecap="round" stroke-linejoin="round" transform="translate(16.05 2.65)"/><path d="m-8.55 0 .8-.6 2.55-1.5 1.95 1L.3 1q.8.5 1.75.5l1.55-.3.95-.35Q5.7.3 6.15.1 7.55 1.35 8 3.3l.15.85.2 1.75.05 1.95-.2.85-1.4.8q-3.55 1.9-7.35 3.35l-.7.3-.2.05-.95.35-1.1.35-1 .3-2.55.4-2.95.05-.75-.2-1.2-.55-.3-.4-2.05-.25-.9-.6q-.55-.6-.1-2.35l-.2-.85q-.2-1.55.3-2.7.6-1.45 2.15-2.35 1.4-2.05 4.5-4.4M2.3 9l.4-.15.9-.4.15-.05 1.2-.55 1.7-.55q1.1-.55 1.7-1.4m-18.55 6.05q-.8-.3-1.55-.8h-.05l-1.65.1q-.6-.1-1.2-.5l-.65-.45m5.1 1.65 5.4-.2q3.5-1.55 5.55-2.2l.45-.15L2.3 9" fill="none" stroke="#600" stroke-linecap="round" stroke-linejoin="round" transform="translate(16.05 2.65)"/><path d="M-3.25-1.1q3.55-2 5.9-.1L4.55.85" fill="none" stroke="#000" stroke-linecap="round" stroke-linejoin="round" transform="translate(16.05 2.65)"/></g></defs></svg>

<?xml version="1.0" encoding="UTF-8" standalone="no"?>
<svg xmlns:xlink="http://www.w3.org/1999/xlink" height="38.3px" width="36.05px" xmlns="http://www.w3.org/2000/svg">
  <g transform="matrix(1.0, 0.0, 0.0, 1.0, 23.8, 14.85)">
    <use height="17.8" transform="matrix(1.0, 0.0, 0.0, 1.0, -16.05, -2.65)" width="24.95" xlink:href="#shape0"/>
  </g>
  <defs>
    <g id="shape0" transform="matrix(1.0, 0.0, 0.0, 1.0, 16.05, 2.65)">
      <path d="M-0.4 7.65 Q-2.2 9.2 -5.05 10.15 -8.85 11.45 -10.8 7.85 -13.55 9.9 -15.2 6.75 -14.6 5.3 -13.05 4.4 -11.65 2.35 -8.55 0.0 -6.35 0.0 -4.65 1.1 -3.0 2.15 -1.6 4.15 L-2.25 4.8 -0.9 6.95 -0.4 7.65 M-8.45 6.15 Q-9.8 6.15 -10.8 7.85 -9.8 6.15 -8.45 6.15" fill="#cc0000" fill-rule="evenodd" stroke="none"/>
      <path d="M-3.25 -1.1 Q0.3 -3.1 2.65 -1.2 L4.55 0.85 3.6 1.2 2.05 1.5 4.15 5.2 Q4.75 6.45 4.95 7.85 L6.65 7.3 6.9 8.55 6.8 9.5 Q3.25 11.4 -0.55 12.85 L0.05 12.65 -1.25 13.15 -1.45 13.2 -2.4 13.55 -3.5 13.9 -4.5 14.2 -7.05 14.6 -10.0 14.65 -10.3 13.7 Q-10.5 12.75 -10.2 11.95 L-4.8 11.75 Q-1.3 10.2 0.75 9.55 L-0.4 7.65 -0.9 6.95 -2.25 4.8 -1.6 4.15 -1.0 3.8 0.75 6.35 1.05 6.85 2.3 9.0 2.7 8.85 3.6 8.45 Q3.25 6.85 2.6 5.5 L1.25 2.85 1.15 2.65 2.05 1.5 Q1.1 1.5 0.3 1.0 L-3.25 -1.1 M-11.8 11.15 Q-12.45 12.05 -12.35 12.95 L-11.95 13.9 -12.25 13.5 -14.3 13.25 -14.65 12.25 Q-14.85 11.4 -14.65 10.75 -14.05 11.15 -13.45 11.25 L-11.8 11.15 M-0.55 12.85 L-1.25 13.15 -0.55 12.85 M2.3 9.0 L1.2 9.4 0.75 9.55 1.2 9.4 2.3 9.0 M4.95 7.85 L3.75 8.4 3.6 8.45 3.75 8.4 4.95 7.85" fill="#ffffff" fill-rule="evenodd" stroke="none"/>
      <path d="M-8.55 0.0 L-7.75 -0.6 -5.2 -2.1 -3.25 -1.1 0.3 1.0 Q1.1 1.5 2.05 1.5 L1.15 2.65 1.25 2.85 2.6 5.5 Q3.25 6.85 3.6 8.45 L2.7 8.85 2.3 9.0 1.05 6.85 0.75 6.35 -1.0 3.8 -1.6 4.15 Q-3.0 2.15 -4.65 1.1 -6.35 0.0 -8.55 0.0 M4.55 0.85 Q5.7 0.3 6.15 0.1 7.55 1.35 8.0 3.3 L8.15 4.15 8.35 5.9 Q7.75 6.75 6.65 7.3 L4.95 7.85 Q4.75 6.45 4.15 5.2 L2.05 1.5 3.6 1.2 4.55 0.85 M-10.8 7.85 Q-8.85 11.45 -5.05 10.15 -2.2 9.2 -0.4 7.65 L0.75 9.55 Q-1.3 10.2 -4.8 11.75 L-10.2 11.95 Q-11.0 11.65 -11.75 11.15 L-11.8 11.15 -13.45 11.25 Q-14.05 11.15 -14.65 10.75 L-15.3 10.3 -15.5 9.45 Q-15.7 7.9 -15.2 6.75 -13.55 9.9 -10.8 7.85 L-10.85 7.9 Q-11.6 9.3 -11.75 11.15 -11.6 9.3 -10.85 7.9 L-10.8 7.85" fill="#990000" fill-rule="evenodd" stroke="none"/>
      <path d="M8.35 5.9 L8.4 7.85 8.2 8.7 6.8 9.5 6.9 8.55 6.65 7.3 Q7.75 6.75 8.35 5.9 M-11.8 11.15 L-11.75 11.15 Q-11.0 11.65 -10.2 11.95 -10.5 12.75 -10.3 13.7 L-10.0 14.65 -10.75 14.45 -11.95 13.9 -12.35 12.95 Q-12.45 12.05 -11.8 11.15 M-14.65 10.75 Q-14.85 11.4 -14.65 12.25 L-14.3 13.25 -15.2 12.65 Q-15.75 12.05 -15.3 10.3 L-14.65 10.75" fill="#c9d8e4" fill-rule="evenodd" stroke="none"/>
      <path d="M-10.8 7.85 Q-9.8 6.15 -8.45 6.15 M-11.75 11.15 Q-11.6 9.3 -10.85 7.9 L-10.8 7.85" fill="none" stroke="#660000" stroke-linecap="round" stroke-linejoin="round" stroke-width="1.0"/>
      <path d="M-8.55 0.0 L-7.75 -0.6 -5.2 -2.1 -3.25 -1.1 0.3 1.0 Q1.1 1.5 2.05 1.5 L3.6 1.2 4.55 0.85 Q5.7 0.3 6.15 0.1 7.55 1.35 8.0 3.3 L8.15 4.15 8.35 5.9 8.4 7.85 8.2 8.7 6.8 9.5 Q3.25 11.4 -0.55 12.85 L-1.25 13.15 -1.45 13.2 -2.4 13.55 -3.5 13.9 -4.5 14.2 -7.05 14.6 -10.0 14.65 -10.75 14.45 -11.95 13.9 -12.25 13.5 -14.3 13.25 -15.2 12.65 Q-15.75 12.05 -15.3 10.3 L-15.5 9.45 Q-15.7 7.9 -15.2 6.75 -14.6 5.3 -13.05 4.4 -11.65 2.35 -8.55 0.0 M2.3 9.0 L2.7 8.85 3.6 8.45 3.75 8.4 4.95 7.85 6.65 7.3 Q7.75 6.75 8.35 5.9 M-10.2 11.95 Q-11.0 11.65 -11.75 11.15 L-11.8 11.15 -13.45 11.25 Q-14.05 11.15 -14.65 10.75 L-15.3 10.3 M-10.2 11.95 L-4.8 11.75 Q-1.3 10.2 0.75 9.55 L1.2 9.4 2.3 9.0" fill="none" stroke="#660000" stroke-linecap="round" stroke-linejoin="round" stroke-width="1.0"/>
      <path d="M-3.25 -1.1 Q0.3 -3.1 2.65 -1.2 L4.55 0.85" fill="none" stroke="#000000" stroke-linecap="round" stroke-linejoin="round" stroke-width="1.0"/>
    </g>
  </defs>
</svg>
